X:10
T:Zöld erdőben
O: Gajcsána (Tekucs), 1929
Q: 1/4=138
M:4/4
L:1/4
K:F
d/d/A/A/ d/d/d/c/ | d<c G2 | 
c/c/G/B/ A/A/G/F/ | G<F F z | 
F G A (c/B/) | A/G/F/E/ | D/ (DE/) F z 
F G A (c/B/) | A/G/F/E/ | D<D D z | 

